X: 11535
T: Eddie Moloney's Favourite
R: reel
M: 4/4
K: Edorian
|:B2GB EBGB|A2FA DAFA|B2GB EBGA|(3Bcd BA GEE2|
B2GB eBGB|A2FA DAFA|dBBA B2BA|(3Bcd BA GEE2:|
|:g2ef gfed|(3Bcd BA GEE2|gfef gfed|~B3 A (3Bcd ef|
gfef gfed|BcB ABA GAG FGF|~E3F GFGA|(3Bcd ef gfed:|

